X: 96
T: Su ku
%%abc-version 2.0
%%abcx-abcm2ps-target-version 5.9.1 (29 Sep 2008)
%%abc-creator hum2abc beta
%%abcx-conversion-date 2013/10/02 07:52:29
%%abc-edited-by Helmut Schaffrath
%%humdrum-veritas 2066188279
%%humdrum-veritas-data 318354444
%%continueall 1
%%barnumbers 0
L: 1/8
M: 2/4
K: G
d d e d [I:setbarnb 1]| 
c BA2 | 
d2E G | 
A4 | 
A d B d | 
A B A G | 
A G A E | 
D4 | 
A B A/ B/ A/ G/ | 
E G/ G/D2 | 
e g e/ g/ e/ d/ | 
c d/ e/ d B | 
AA2B | 
d2E G | 
A4 | 
G A G E | 
D4 |]  



